X: 34102
T: Reel Des Skieurs
R: reel
M: 4/4
K: Gmajor
AB/c/|:d2fd B2dB|GABG D2B2|A^GAB cAFA|GABc d2AB/c/|
d2fd B2dB|G2BG D2B2|A^GAB cAFA|1 GFGA G2AB/c/:|2 GFGA G2 GA/B/||
K:C
|:c2Gc e2ce|g4 gagf|edeg fedc|BGAB cBAG|
c2Gc e2ce|g4 gagf|edeg fedc|1 BGAB c2 GA/B/:|2 BGAB c4||

